modules/coreui-icons-brand/icons/nintendo-3ds.svg

<svg version="1.1" xmlns="http://www.w3.org/2000/svg" width="32" height="32" viewBox="0 0 32 32">
<title>nintendo-3ds</title>
<path d="M23.536 22.172c0 0.525 0.428 0.953 0.948 0.953 0.527 0 0.953-0.428 0.953-0.953 0-0.521-0.427-0.948-0.953-0.948-0.52 0-0.948 0.427-0.948 0.948zM10.937 27.823h10.099c0.401 0 0.699-0.296 0.724-0.697v-6.901c-0.025-0.375-0.348-0.697-0.724-0.677h-10.099c-0.391 0-0.713 0.313-0.724 0.704v6.875c0 0.401 0.323 0.697 0.724 0.697zM28.339 23.125c0.536 0 0.973-0.437 0.973-0.975 0-0.864-1.047-1.301-1.661-0.687-0.615 0.609-0.181 1.661 0.688 1.661zM26.416 23.099c-0.541-0.020-0.989 0.412-0.989 0.953 0 0.536 0.448 0.969 0.989 0.948 1.22-0.047 1.22-1.855 0-1.901zM25.464 20.251c0 0.525 0.427 0.947 0.948 0.947 0.525 0 0.952-0.421 0.952-0.947 0-0.527-0.427-0.948-0.952-0.948-0.521 0-0.948 0.421-0.948 0.948zM3.385 22.151c0 1.213 0.984 2.199 2.203 2.199 1.215 0 2.199-0.985 2.199-2.199 0-2.937-4.401-2.937-4.401 0zM28.364 0h-24.728c-2.005-0.005-3.641 1.62-3.652 3.625v24.724c0.027 2.025 1.652 3.651 3.652 3.651h24.703c2.011 0 3.651-1.615 3.677-3.625v-24.724c-0.027-2.025-1.652-3.651-3.652-3.651zM30.912 28.375c-0.005 1.407-1.141 2.543-2.548 2.547h-24.728c-1.407-0.004-2.543-1.14-2.548-2.547v-11.276h29.824zM30.912 15.448h-29.824v-11.797c0.005-1.405 1.141-2.547 2.548-2.552h24.728c1.396 0 2.548 1.152 2.548 2.552v11.797zM23.213 4.151h-14.5c-0.401 0-0.729 0.349-0.729 0.751v7.296c0 0.401 0.303 0.756 0.729 0.756h14.5c0.407-0.005 0.735-0.344 0.724-0.756v-7.323c0-0.401-0.323-0.724-0.724-0.724z"></path>
</svg>

<svg xmlns="http://www.w3.org/2000/svg" width="32" height="32" viewBox="0 0 32 32"><path d="M23.536 22.172c0 .525.428.953.948.953a.953.953 0 00.953-.953.952.952 0 00-.953-.948.952.952 0 00-.948.948zm-12.599 5.651h10.099c.401 0 .699-.296.724-.697v-6.901c-.025-.375-.348-.697-.724-.677H10.937a.726.726 0 00-.724.704v6.875c0 .401.323.697.724.697zm17.402-4.698a.975.975 0 00.973-.975c0-.864-1.047-1.301-1.661-.687-.615.609-.181 1.661.688 1.661zm-1.923-.026a.951.951 0 100 1.901c1.22-.047 1.22-1.855 0-1.901zm-.952-2.848c0 .525.427.947.948.947a.948.948 0 100-1.895.947.947 0 00-.948.948zm-22.079 1.9a2.2 2.2 0 004.402 0c0-2.937-4.401-2.937-4.401 0zM28.364 0H3.636A3.648 3.648 0 00-.016 3.625v24.724C.011 30.374 1.636 32 3.636 32h24.703a3.676 3.676 0 003.677-3.625V3.651C31.989 1.626 30.364 0 28.364 0zm2.548 28.375a2.553 2.553 0 01-2.548 2.547H3.636a2.553 2.553 0 01-2.548-2.547V17.099h29.824zm0-12.927H1.088V3.651a2.56 2.56 0 012.548-2.552h24.728a2.563 2.563 0 012.548 2.552v11.797zM23.213 4.151h-14.5c-.401 0-.729.349-.729.751v7.296c0 .401.303.756.729.756h14.5a.735.735 0 00.724-.756V4.875a.723.723 0 00-.724-.724z"/></svg>
